X: 616
T: Pat The Budgie
B: good tune book
B: tunes
M:4/4
R: reel
Q: 1/4=100
K:Dmajor
V:1 
|:D2 DF A3 F|GFGB e3 d|cA ~A2 ^GABc|1 dcde fdAF:|2 ~d2 ce d2 ef||
 |:g2 gf gbag|fddc d2 Bd|cA ~A2 cdec|1 dcde fedf:|2 ~d2 ce d2 fg||
 |:a2 z2 b3 f|abaf dafd|cA ~A2 cdec|1 dcde fdfg:|2 ~d2 ce d4||
% abcbook-tune_id 63dce7262c0260c50a4fa1af
% abcbook-tune_composer_id 
% abcbook-link-0 https://www.youtube.com/watch?v=9eTJ2Y0y7Q8
% abcbook-boost 1
% abcbook-difficulty 0
% abcbook-tags good tune book
% abcbook-tablature 
% abcbook-transpose 
% abcbook-tuning 
% abcbook-lastupdated 1675482865302
% abcbook-soundfonts 
% abcbook-repeats 1


